Papirus/64x64/apps/rclone-browser.svg

<?xml version="1.0" encoding="UTF-8" standalone="no"?>
<svg
   id="_图层_1"
   version="1.1"
   viewBox="0 0 64 64" width="64" height="64"
   sodipodi:docname="rclone-browser.svg"
   xml:space="preserve"
   inkscape:version="1.4 (e7c3feb100, 2024-10-09)"
   xmlns:inkscape="http://www.inkscape.org/namespaces/inkscape"
   xmlns:sodipodi="http://sodipodi.sourceforge.net/DTD/sodipodi-0.dtd"
   xmlns:xlink="http://www.w3.org/1999/xlink"
   xmlns="http://www.w3.org/2000/svg"
   xmlns:svg="http://www.w3.org/2000/svg"><sodipodi:namedview
     id="namedview26"
     pagecolor="#505050"
     bordercolor="#eeeeee"
     borderopacity="1"
     inkscape:showpageshadow="0"
     inkscape:pageopacity="0"
     inkscape:pagecheckerboard="0"
     inkscape:deskcolor="#505050"
     inkscape:zoom="10.6875"
     inkscape:cx="32"
     inkscape:cy="32"
     inkscape:window-width="1920"
     inkscape:window-height="939"
     inkscape:window-x="0"
     inkscape:window-y="34"
     inkscape:window-maximized="1"
     inkscape:current-layer="_图层_1" /><!-- Generator: Adobe Illustrator 29.0.1, SVG Export Plug-In . SVG Version: 2.1.0 Build 192)  --><defs
     id="defs6"><style
       id="style1">
      .st0 {
        fill-opacity: .5;
      }

      .st0, .st1, .st2, .st3, .st4, .st5, .st6, .st7 {
        fill: #fff;
      }

      .st8 {
        fill: #133c9a;
      }

      .st2, .st9 {
        display: none;
      }

      .st3 {
        fill-opacity: .2;
      }

      .st4 {
        fill-opacity: .9;
      }

      .st10 {
        fill: #3370ff;
      }

      .st11 {
        fill: url(#_未命名的渐变_3);
      }

      .st12 {
        fill: url(#_未命名的渐变);
      }

      .st5 {
        fill-opacity: .3;
      }

      .st6 {
        fill-opacity: 0;
      }

      .st7 {
        fill-opacity: .7;
      }

      .st13 {
        fill: #00d6b9;
      }

      .st14 {
        fill: url(#_未命名的渐变_2);
      }
    </style><radialGradient
       id="_未命名的渐变"
       data-name="未命名的渐变"
       cx="123.9"
       cy="-40.2"
       fx="123.9"
       fy="-40.2"
       r="59.4"
       gradientTransform="translate(-26.8 25.5) scale(.6 -.7)"
       gradientUnits="userSpaceOnUse"><stop
         offset="0"
         stop-color="#db202e"
         id="stop1" /><stop
         offset="1"
         stop-color="#e01b24"
         id="stop2" /></radialGradient><radialGradient
       id="_未命名的渐变_2"
       data-name="未命名的渐变 2"
       cx="67.6"
       cy="26.8"
       fx="67.6"
       fy="26.8"
       r="105.2"
       gradientTransform="translate(-26.6 25.3) scale(.6 -.7)"
       gradientUnits="userSpaceOnUse"><stop
         offset="0"
         stop-color="#ffb648"
         id="stop3" /><stop
         offset="1"
         stop-color="#ff7800"
         stop-opacity="0"
         id="stop4" /></radialGradient><radialGradient
       id="_未命名的渐变_3"
       data-name="未命名的渐变 3"
       cx="61.7"
       cy="18.6"
       fx="61.7"
       fy="18.6"
       r="68"
       gradientTransform="translate(-26.8 25.8) scale(.6 -.7)"
       gradientUnits="userSpaceOnUse"><stop
         offset="0"
         stop-color="#c64600"
         id="stop5" /><stop
         offset="1"
         stop-color="#a51d2d"
         id="stop6" /></radialGradient><linearGradient
       id="linearGradient1261"><stop
         style="stop-color:#4f4f4f"
         offset="0"
         id="stop1-7" /><stop
         style="stop-color:#3f3f3f"
         offset="1"
         id="stop2-0" /></linearGradient><linearGradient
       id="linearGradient1263"
       x1="34.241"
       x2="37.169"
       y1="38.945"
       y2="30.342"
       gradientTransform="matrix(1.3919157,0,0,1.3888889,-1.321022,-0.4865665)"
       gradientUnits="userSpaceOnUse"
       xlink:href="#linearGradient1261" /><style
       id="style1-7">
      .st0 {
        fill-opacity: .5;
      }

      .st0, .st1, .st2, .st3, .st4, .st5, .st6, .st7 {
        fill: #fff;
      }

      .st8 {
        fill: #133c9a;
      }

      .st2, .st9 {
        display: none;
      }

      .st3 {
        fill-opacity: .2;
      }

      .st4 {
        fill-opacity: .9;
      }

      .st10 {
        fill: #3370ff;
      }

      .st11 {
        fill: url(#_未命名的渐变_3);
      }

      .st12 {
        fill: url(#_未命名的渐变);
      }

      .st5 {
        fill-opacity: .3;
      }

      .st6 {
        fill-opacity: 0;
      }

      .st7 {
        fill-opacity: .7;
      }

      .st13 {
        fill: #00d6b9;
      }

      .st14 {
        fill: url(#_未命名的渐变_2);
      }
    </style><radialGradient
       id="_未命名的渐变-8"
       data-name="未命名的渐变"
       cx="123.9"
       cy="-40.2"
       fx="123.9"
       fy="-40.2"
       r="59.4"
       gradientTransform="translate(-26.8 25.5) scale(.6 -.7)"
       gradientUnits="userSpaceOnUse"><stop
         offset="0"
         stop-color="#db202e"
         id="stop1-4" /><stop
         offset="1"
         stop-color="#e01b24"
         id="stop2-5" /></radialGradient><radialGradient
       id="_未命名的渐变_2-0"
       data-name="未命名的渐变 2"
       cx="67.6"
       cy="26.8"
       fx="67.6"
       fy="26.8"
       r="105.2"
       gradientTransform="translate(-26.6 25.3) scale(.6 -.7)"
       gradientUnits="userSpaceOnUse"><stop
         offset="0"
         stop-color="#ffb648"
         id="stop3-3" /><stop
         offset="1"
         stop-color="#ff7800"
         stop-opacity="0"
         id="stop4-6" /></radialGradient><radialGradient
       id="_未命名的渐变_3-1"
       data-name="未命名的渐变 3"
       cx="61.7"
       cy="18.6"
       fx="61.7"
       fy="18.6"
       r="68"
       gradientTransform="translate(-26.8 25.8) scale(.6 -.7)"
       gradientUnits="userSpaceOnUse"><stop
         offset="0"
         stop-color="#c64600"
         id="stop5-0" /><stop
         offset="1"
         stop-color="#a51d2d"
         id="stop6-6" /></radialGradient></defs><path
     class="st1"
     d="M47.5,64.1H13.8c-7.6,0-13.8-6.3-13.8-13.8V13.7C0,6.2,6.2,0,13.7,0h36.6c7.5,0,13.7,6.2,13.7,13.7v36.6c0,7.5-6.2,13.7-13.7,13.7h-2.9.1Z"
     id="path6"
     style="fill:#dfdfdf;fill-opacity:1" /><g
     id="g27"
     transform="matrix(0.88771334,0,0,0.8456963,4.4366924,3.9710401)"><path
       style="opacity:0.2"
       d="m 31.960902,5.0000672 c -6.384298,-0.01781 -12.55671,3.3596842 -15.800763,9.3320198 -1.545143,2.844626 -2.188283,5.92095 -2.109372,8.945302 1.846536,-0.554113 3.798099,-0.862887 5.820305,-0.863281 l 4.039058,-0.004 c 0.0798,-1.170318 0.396919,-2.310619 0.957031,-3.347652 2.178201,-4.010101 6.891675,-5.310208 10.929674,-3.117184 3.758536,2.046925 5.163444,6.358512 3.507808,10.273426 l -3.710933,6.882897 3.23437,3.898434 h 6.046869 l 2.96484,-5.468744 C 52.558403,22.844246 49.289645,11.95351 40.542922,7.2031896 37.809337,5.7185887 34.862855,5.0081624 31.960902,5.0000672 Z m -4.874994,19.9999758 -7.210929,0.004 C 10.003502,25.003957 2,33.065378 2,43.003928 2,52.943322 10.003502,61 19.874979,61 c 3.696669,0 7.130225,-1.131517 9.980456,-3.066402 -1.630858,-1.408337 -3.057511,-3.108855 -4.191401,-5.085932 l -1.566405,-2.921871 c -1.275858,0.769927 -2.73129,1.176153 -4.218744,1.179685 -4.556861,0 -7.945303,-3.517244 -7.945303,-8.105458 0.005,-4.273379 3.119442,-7.559501 7.343741,-7.972647 l 7.808585,-0.02734 2.914058,-4.72265 z m 24.878876,1.984374 c -0.404233,2.116531 -1.163343,4.201347 -2.308591,6.171866 l -1.746092,2.816403 c 1.304708,0.719963 2.386023,1.779994 3.132808,3.066402 2.278431,3.94636 0.926641,8.639472 -3.04687,10.933581 -3.703346,2.132378 -8.10817,1.076781 -10.578114,-2.374997 l -3.925775,-6.749992 -5.546869,-0.16406 -3.117184,5.164056 3.613277,6.242181 c 4.935746,8.548947 15.916375,11.449728 24.523409,6.48046 8.607768,-4.969696 11.584172,-15.927583 6.64843,-24.476533 -1.848334,-3.20141 -4.547655,-5.608437 -7.648429,-7.109365 z"
       id="path1" /><path
       style="fill:#aee5ff"
       d="m 24.829973,44.848211 3.610427,6.242644 c 4.935746,8.548948 15.916255,11.450236 24.523289,6.480968 8.607768,-4.969696 11.584702,-15.929319 6.64896,-24.478268 -1.848334,-3.20141 -4.545379,-5.60918 -7.646153,-7.11011 -0.404233,2.116532 -1.163781,4.203807 -2.309029,6.174327 l -1.74837,2.814406 c 1.304708,0.719964 2.387755,1.779188 3.13454,3.065597 2.278431,3.946359 0.925445,8.640197 -3.048066,10.934307 -3.703346,2.132377 -8.108798,1.077618 -10.578742,-2.37416 l -3.926563,-6.749725 -5.546439,-0.16272 z"
       id="path2" /><path
       style="fill:#2279ca"
       d="m 27.085826,23.999986 -7.211504,0.0054 C 10.002845,24.005394 2,32.064148 2,42.002698 c 0,9.939394 8.002845,17.997304 17.874322,17.997304 3.69667,0 7.130382,-1.131822 9.980613,-3.066708 -1.630858,-1.408336 -3.058719,-3.109764 -4.192609,-5.086842 l -1.563165,-2.921334 c -1.275858,0.769927 -2.734698,1.17826 -4.222153,1.181792 -4.556861,0 -7.945354,-3.518642 -7.945353,-8.106856 0.005,-4.273379 3.121152,-7.561235 7.345451,-7.97438 l 7.808716,-0.02564 2.914144,-4.721995 z"
       id="path3" /><path
       style="fill:#64cefe"
       d="m 31.960902,4.0000696 c -6.384298,-0.01781 -12.55671,3.3596842 -15.800763,9.3320204 -1.545143,2.844625 -2.188283,5.92095 -2.109372,8.945302 1.846536,-0.554114 3.798099,-0.862887 5.820305,-0.863281 l 4.039058,-0.004 c 0.0798,-1.170319 0.396919,-2.31062 0.957031,-3.347652 2.178201,-4.010102 6.891675,-5.310209 10.929674,-3.117184 3.758536,2.046925 5.163444,6.358512 3.507808,10.273425 l -3.710933,6.882898 3.23437,3.898433 h 6.046869 l 2.96484,-5.468743 C 52.558403,21.844248 49.289645,10.953513 40.542922,6.203192 37.809337,4.7185911 34.862855,4.0081648 31.960902,4.0000696 Z"
       id="path4" /><path
       style="opacity:0.2;fill:#ffffff"
       d="m 31.960938,4 c -6.384299,-0.01781 -12.556729,3.3596951 -15.800782,9.332031 -1.545143,2.844625 -2.188286,5.920961 -2.109375,8.945313 0.0012,-3.61e-4 0.0027,3.54e-4 0.0039,0 0.07304,-2.698897 0.730238,-5.413499 2.105468,-7.945313 C 19.404209,8.3596956 25.576639,4.98219 31.960938,5 34.862891,5.0081 37.809384,5.7185241 40.542969,7.203125 46.399035,10.383539 49.775256,16.318702 49.964844,22.5 50.130063,15.965335 46.714451,9.5548399 40.542969,6.203125 37.809384,4.7185241 34.862891,4.0080952 31.960938,4 Z m 7.953124,18.789062 c -0.08846,0.811973 -0.270392,1.628129 -0.609374,2.429688 l -3.710938,6.882812 0.326172,0.394532 3.384766,-6.277344 c 0.338982,-0.801559 0.520915,-1.617715 0.609374,-2.429688 0.02822,0.200463 0.03012,0.406065 0.04297,0.609376 0.03318,-0.542604 0.03124,-1.082289 -0.04297,-1.609376 z m 12.050782,3.195313 c -0.404233,2.11653 -1.163346,4.201355 -2.308594,6.171875 l -1.746094,2.816406 c 0.154817,0.08543 0.295757,0.189892 0.44336,0.285156 L 49.65625,33.15625 c 1.145248,-1.97052 1.904361,-4.055345 2.308594,-6.171875 3.100774,1.500926 5.800103,3.907965 7.648437,7.109375 1.518991,2.630969 2.274296,5.489575 2.359375,8.332031 0.0821,-3.168205 -0.661983,-6.392062 -2.359375,-9.332031 -1.848334,-3.20141 -4.547663,-5.608449 -7.648437,-7.109375 z m -24.019532,13.699219 -3.117187,5.164062 0.294922,0.509766 2.822265,-4.673828 5.546876,0.164062 3.925781,6.75 c 2.469944,3.451778 6.874779,4.507377 10.578125,2.375 2.361471,-1.363397 3.768592,-3.578837 4.066406,-5.976562 0.02746,0.195912 0.02474,0.39044 0.03711,0.585937 0.03545,-0.524849 0.0375,-1.053758 -0.03711,-1.585937 -0.297814,2.397725 -1.704935,4.613165 -4.066406,5.976562 -3.703346,2.132377 -8.108181,1.076778 -10.578125,-2.375 l -3.925781,-6.75 z"
       id="path5" /><path
       style="opacity:0.1;fill:#ffffff"
       d="M 27.085938,24 19.875,24.003906 C 10.003523,24.003914 2,32.065356 2,42.003906 2,42.171412 2.0150906,42.335123 2.0253906,42.5 2.2929449,32.796528 10.172505,25.003914 19.875,25.003906 L 27.085938,25 29.708984,29.75 30,29.277344 Z m -15.0625,18.996094 c -0.04008,0.331857 -0.08944,0.658144 -0.08984,1.003906 0,0.223345 0.01545,0.442169 0.03125,0.660156 0.01778,-0.221864 0.03208,-0.44457 0.05859,-0.664062 0.457588,4.084199 3.639527,7.109375 7.855468,7.109375 1.487454,-0.0035 2.942892,-0.409761 4.21875,-1.179688 l 1.566406,2.921875 c 0.97888,1.706798 2.186642,3.193995 3.544922,4.478516 0.220881,-0.123156 0.438025,-0.251064 0.646485,-0.392578 -1.630858,-1.408336 -3.057517,-3.10886 -4.191407,-5.085938 l -1.566406,-2.921875 c -1.275858,0.769927 -2.731296,1.176156 -4.21875,1.179688 -4.215941,0 -7.39788,-3.025176 -7.855468,-7.109375 z"
       id="path6-1" /></g></svg>

<svg xmlns="http://www.w3.org/2000/svg" width="64" height="64" version="1">
 <path style="opacity:0.2" d="m 31.960902,5.0000672 c -6.384298,-0.01781 -12.55671,3.3596842 -15.800763,9.3320198 -1.545143,2.844626 -2.188283,5.92095 -2.109372,8.945302 1.846536,-0.554113 3.798099,-0.862887 5.820305,-0.863281 l 4.039058,-0.004 c 0.0798,-1.170318 0.396919,-2.310619 0.957031,-3.347652 2.178201,-4.010101 6.891675,-5.310208 10.929674,-3.117184 3.758536,2.046925 5.163444,6.358512 3.507808,10.273426 l -3.710933,6.882897 3.23437,3.898434 h 6.046869 l 2.96484,-5.468744 C 52.558403,22.844246 49.289645,11.95351 40.542922,7.2031896 37.809337,5.7185887 34.862855,5.0081624 31.960902,5.0000672 Z m -4.874994,19.9999758 -7.210929,0.004 C 10.003502,25.003957 2,33.065378 2,43.003928 2,52.943322 10.003502,61 19.874979,61 c 3.696669,0 7.130225,-1.131517 9.980456,-3.066402 -1.630858,-1.408337 -3.057511,-3.108855 -4.191401,-5.085932 l -1.566405,-2.921871 c -1.275858,0.769927 -2.73129,1.176153 -4.218744,1.179685 -4.556861,0 -7.945303,-3.517244 -7.945303,-8.105458 0.005,-4.273379 3.119442,-7.559501 7.343741,-7.972647 l 7.808585,-0.02734 2.914058,-4.72265 z m 24.878876,1.984374 c -0.404233,2.116531 -1.163343,4.201347 -2.308591,6.171866 l -1.746092,2.816403 c 1.304708,0.719963 2.386023,1.779994 3.132808,3.066402 2.278431,3.94636 0.926641,8.639472 -3.04687,10.933581 -3.703346,2.132378 -8.10817,1.076781 -10.578114,-2.374997 l -3.925775,-6.749992 -5.546869,-0.16406 -3.117184,5.164056 3.613277,6.242181 c 4.935746,8.548947 15.916375,11.449728 24.523409,6.48046 8.607768,-4.969696 11.584172,-15.927583 6.64843,-24.476533 -1.848334,-3.20141 -4.547655,-5.608437 -7.648429,-7.109365 z"/>
 <path style="fill:#aee5ff" d="m 24.829973,44.848211 3.610427,6.242644 c 4.935746,8.548948 15.916255,11.450236 24.523289,6.480968 8.607768,-4.969696 11.584702,-15.929319 6.64896,-24.478268 -1.848334,-3.20141 -4.545379,-5.60918 -7.646153,-7.11011 -0.404233,2.116532 -1.163781,4.203807 -2.309029,6.174327 l -1.74837,2.814406 c 1.304708,0.719964 2.387755,1.779188 3.13454,3.065597 2.278431,3.946359 0.925445,8.640197 -3.048066,10.934307 -3.703346,2.132377 -8.108798,1.077618 -10.578742,-2.37416 l -3.926563,-6.749725 -5.546439,-0.16272 z"/>
 <path style="fill:#2279ca" d="m 27.085826,23.999986 -7.211504,0.0054 C 10.002845,24.005394 2,32.064148 2,42.002698 c 0,9.939394 8.002845,17.997304 17.874322,17.997304 3.69667,0 7.130382,-1.131822 9.980613,-3.066708 -1.630858,-1.408336 -3.058719,-3.109764 -4.192609,-5.086842 l -1.563165,-2.921334 c -1.275858,0.769927 -2.734698,1.17826 -4.222153,1.181792 -4.556861,0 -7.945354,-3.518642 -7.945353,-8.106856 0.005,-4.273379 3.121152,-7.561235 7.345451,-7.97438 l 7.808716,-0.02564 2.914144,-4.721995 z"/>
 <path style="fill:#64cefe" d="m 31.960902,4.0000696 c -6.384298,-0.01781 -12.55671,3.3596842 -15.800763,9.3320204 -1.545143,2.844625 -2.188283,5.92095 -2.109372,8.945302 1.846536,-0.554114 3.798099,-0.862887 5.820305,-0.863281 l 4.039058,-0.004 c 0.0798,-1.170319 0.396919,-2.31062 0.957031,-3.347652 2.178201,-4.010102 6.891675,-5.310209 10.929674,-3.117184 3.758536,2.046925 5.163444,6.358512 3.507808,10.273425 l -3.710933,6.882898 3.23437,3.898433 h 6.046869 l 2.96484,-5.468743 C 52.558403,21.844248 49.289645,10.953513 40.542922,6.203192 37.809337,4.7185911 34.862855,4.0081648 31.960902,4.0000696 Z"/>
 <path style="opacity:0.2;fill:#ffffff" d="M 31.960938 4 C 25.576639 3.98219 19.404209 7.3596951 16.160156 13.332031 C 14.615013 16.176656 13.97187 19.252992 14.050781 22.277344 C 14.05198 22.276983 14.053486 22.277698 14.054688 22.277344 C 14.12773 19.578447 14.784926 16.863845 16.160156 14.332031 C 19.404209 8.3596956 25.576639 4.98219 31.960938 5 C 34.862891 5.0080952 37.809384 5.7185241 40.542969 7.203125 C 46.399035 10.383539 49.775256 16.318702 49.964844 22.5 C 50.130063 15.965335 46.714451 9.5548399 40.542969 6.203125 C 37.809384 4.7185241 34.862891 4.0080952 31.960938 4 z M 39.914062 22.789062 C 39.825603 23.601035 39.64367 24.417191 39.304688 25.21875 L 35.59375 32.101562 L 35.919922 32.496094 L 39.304688 26.21875 C 39.64367 25.417191 39.825603 24.601035 39.914062 23.789062 C 39.942285 23.989525 39.944183 24.195127 39.957031 24.398438 C 39.990208 23.855834 39.988269 23.316149 39.914062 22.789062 z M 51.964844 25.984375 C 51.560611 28.100905 50.801498 30.18573 49.65625 32.15625 L 47.910156 34.972656 C 48.064973 35.058086 48.205913 35.162548 48.353516 35.257812 L 49.65625 33.15625 C 50.801498 31.18573 51.560611 29.100905 51.964844 26.984375 C 55.065618 28.485301 57.764947 30.89234 59.613281 34.09375 C 61.132272 36.724719 61.887577 39.583325 61.972656 42.425781 C 62.05476 39.257576 61.310673 36.033719 59.613281 33.09375 C 57.764947 29.89234 55.065618 27.485301 51.964844 25.984375 z M 27.945312 39.683594 L 24.828125 44.847656 L 25.123047 45.357422 L 27.945312 40.683594 L 33.492188 40.847656 L 37.417969 47.597656 C 39.887913 51.049434 44.292748 52.105033 47.996094 49.972656 C 50.357565 48.609259 51.764686 46.393819 52.0625 43.996094 C 52.089964 44.192006 52.087236 44.386534 52.099609 44.582031 C 52.135062 44.057182 52.137105 43.528273 52.0625 42.996094 C 51.764686 45.393819 50.357565 47.609259 47.996094 48.972656 C 44.292748 51.105033 39.887913 50.049434 37.417969 46.597656 L 33.492188 39.847656 L 27.945312 39.683594 z"/>
 <path style="opacity:0.1;fill:#ffffff" d="M 27.085938 24 L 19.875 24.003906 C 10.003523 24.003914 2 32.065356 2 42.003906 C 2 42.171412 2.0150906 42.335123 2.0253906 42.5 C 2.2929449 32.796528 10.172505 25.003914 19.875 25.003906 L 27.085938 25 L 29.708984 29.75 L 30 29.277344 L 27.085938 24 z M 12.023438 42.996094 C 11.983358 43.327951 11.933994 43.654238 11.933594 44 C 11.933594 44.223345 11.949042 44.442169 11.964844 44.660156 C 11.982621 44.438292 11.996928 44.215586 12.023438 43.996094 C 12.481026 48.080293 15.662965 51.105469 19.878906 51.105469 C 21.36636 51.101937 22.821798 50.695708 24.097656 49.925781 L 25.664062 52.847656 C 26.642942 54.554454 27.850704 56.041651 29.208984 57.326172 C 29.429865 57.203016 29.647009 57.075108 29.855469 56.933594 C 28.224611 55.525258 26.797952 53.824734 25.664062 51.847656 L 24.097656 48.925781 C 22.821798 49.695708 21.36636 50.101937 19.878906 50.105469 C 15.662965 50.105469 12.481026 47.080293 12.023438 42.996094 z"/>
</svg>
